X:1
T:Savior, More Than Life
T:William Howard Doane
T:Savior, More Than Life
T:Public Domain
T:Public Domain
C:William Howard Doane
Z:Public Domain
%%score 1 2
L:1/8
M:3/4
K:Ab
V:1 treble 
V:2 bass 
V:1
 [Ec]>[DB] | [CA]3 [EB] [FA]>[DF] | [CE]4 [CE][CE] | [DF]<[FA] E<[EA] [Ec]>[EB] | [EB]4 [Ec]>[DB] | %5
w: 1.~Sav- ior,|more than life to|me, I am|cling- ing, cling- ing, close to|Thee; Let Thy|
w: 2.~Through this|chang- ing world be-|low, Lead me|gent- ly, gent- ly as I|go; Trust- ing|
w: 3.~Let me|love Thee more and|more, Till this|fleet- ing, fleet- ing life is|o’er; Till my|
 [CA]3 [EB] [FA]>[DF] | [CE]4 [CE][CE] | [DF]<[FA] E<[EA] [Ec]>[DB] | [CA]4 || %9
w: pre- cious blood ap-|plied, Keep me|ev- er, ev- er near Thy|side|
w: Thee, I can- not|stray, I can|nev- er, nev- er lose my|way.|
w: soul is lost in|love, In a|bright- er, bright- er world a-|bove.|
"^Refrain" [EA]>[EB] | [Ac]4 [Ac]>[Ad] | [Ae]4 [Ac]>[EB] | [EA]3 [EA] [EB][Ec] | [EB]4 [Ec]>[DB] | %14
w: |||||
w: Ev- ery|day, ev- ery|hour, Let me|feel Thy cleans- ing|power; May Thy|
w: |||||
 [CA]3 [EB] [FA]>[DF] | [CE]4 [CE][CE] | [DF]<[FA] E<[EA] [Ec]>[DB] | [CA]4 |] %18
w: ||||
w: ten- der love to|me Bind me|clos- er, clos- er, Lord to|Thee.|
w: ||||
V:2
 [A,,A,]>[A,,E,] | [A,,E,]3 [C,A,] [D,A,]>[D,A,] | [A,,A,]4 [A,,A,][A,,A,] | %3
 [D,A,]<[D,A,] [C,A,]<[C,A,] [E,A,]>[E,G,] | [E,G,]4 [A,,A,]>[A,,E,] | %5
 [A,,E,]3 [C,A,] [D,A,]>[D,A,] | [A,,A,]4 [A,,A,][A,,A,] | %7
 [D,A,]<[D,A,] [C,A,]<[C,A,] [E,A,]>[E,G,] | [A,,A,]4 || [A,C]>[A,D] | %10
 [A,E][A,E] [A,E]2 [A,E]>[A,B,] | [A,C][A,C] [A,C]2 [E,E]>[E,D] | [A,,C]3 [C,A,] [B,,G,][A,,A,] | %13
 [E,G,]4 [A,,A,]>[A,,E,] | [A,,E,]3 [C,A,] [D,A,]>[D,A,] | [A,,A,]4 [A,,A,][A,,A,] | %16
 [D,A,]<[D,A,] [C,A,]<[C,A,] [E,A,]>[E,G,] | [A,,A,]4 |] %18

